Newaita-dark/apps/256/ms-powerpoint.svg

<?xml version="1.0" encoding="UTF-8"?>
<svg xmlns="http://www.w3.org/2000/svg" xmlns:xlink="http://www.w3.org/1999/xlink" width="256pt" height="256pt" viewBox="0 0 256 256" version="1.1">
<defs>
<radialGradient id="radial0" gradientUnits="userSpaceOnUse" cx="450.908936" cy="189.579361" fx="450.908936" fy="189.579361" r="21.166656" gradientTransform="matrix(0.00000139336,-0.62506,-1.125108,-0.000000812309,411.753024,508.762644)">
<stop offset="0" style="stop-color:rgb(0%,0%,0%);stop-opacity:0.313725;"/>
<stop offset="0.222222" style="stop-color:rgb(0%,0%,0%);stop-opacity:0.27451;"/>
<stop offset="1" style="stop-color:rgb(0%,0%,0%);stop-opacity:0;"/>
</radialGradient>
<radialGradient id="radial1" gradientUnits="userSpaceOnUse" cx="450.908936" cy="189.579361" fx="450.908936" fy="189.579361" r="21.166656" gradientTransform="matrix(-0.00000139336,0.62506,1.125108,0.000000812309,-157.728714,-60.219848)">
<stop offset="0" style="stop-color:rgb(0%,0%,0%);stop-opacity:0.313725;"/>
<stop offset="0.222222" style="stop-color:rgb(0%,0%,0%);stop-opacity:0.27451;"/>
<stop offset="1" style="stop-color:rgb(0%,0%,0%);stop-opacity:0;"/>
</radialGradient>
<radialGradient id="radial2" gradientUnits="userSpaceOnUse" cx="450.908936" cy="189.579361" fx="450.908936" fy="189.579361" r="21.166656" gradientTransform="matrix(-0.00000139336,-0.62506,1.125108,-0.000000812309,-157.728714,508.762644)">
<stop offset="0" style="stop-color:rgb(0%,0%,0%);stop-opacity:0.313725;"/>
<stop offset="0.222222" style="stop-color:rgb(0%,0%,0%);stop-opacity:0.27451;"/>
<stop offset="1" style="stop-color:rgb(0%,0%,0%);stop-opacity:0;"/>
</radialGradient>
<radialGradient id="radial3" gradientUnits="userSpaceOnUse" cx="450.908936" cy="189.579361" fx="450.908936" fy="189.579361" r="21.166656" gradientTransform="matrix(0.00000139336,0.62506,-1.125108,0.000000812309,411.753008,-60.219852)">
<stop offset="0" style="stop-color:rgb(0%,0%,0%);stop-opacity:0.313725;"/>
<stop offset="0.222222" style="stop-color:rgb(0%,0%,0%);stop-opacity:0.27451;"/>
<stop offset="1" style="stop-color:rgb(0%,0%,0%);stop-opacity:0;"/>
</radialGradient>
<linearGradient id="linear0" gradientUnits="userSpaceOnUse" x1="255.322968" y1="228.178589" x2="255.323044" y2="254.666656" gradientTransform="matrix(2.137607,0,0,0.399589,-397.599275,133.093672)">
<stop offset="0" style="stop-color:rgb(0%,0%,0%);stop-opacity:0.27451;"/>
<stop offset="1" style="stop-color:rgb(0%,0%,0%);stop-opacity:0;"/>
</linearGradient>
<linearGradient id="linear1" gradientUnits="userSpaceOnUse" x1="328.083344" y1="233.5" x2="328.083344" y2="-168.666672" gradientTransform="matrix(0.500048,0,0,0.500048,0,107.510266)">
<stop offset="0" style="stop-color:rgb(87.843137%,87.843137%,87.843137%);stop-opacity:1;"/>
<stop offset="1" style="stop-color:rgb(93.333333%,93.333333%,93.333333%);stop-opacity:1;"/>
</linearGradient>
<linearGradient id="linear2" gradientUnits="userSpaceOnUse" x1="127" y1="233.5" x2="127" y2="-168.666656" gradientTransform="matrix(0.500048,0,0,0.500048,-0.00000166683,107.510265)">
<stop offset="0" style="stop-color:rgb(100%,43.921569%,26.27451%);stop-opacity:1;"/>
<stop offset="1" style="stop-color:rgb(100%,54.117647%,39.607843%);stop-opacity:1;"/>
</linearGradient>
<linearGradient id="linear3" gradientUnits="userSpaceOnUse" x1="275.166656" y1="233.5" x2="275.166656" y2="-168.666656" gradientTransform="matrix(1,0,0,1,126.999977,-0.00000390032)">
<stop offset="0" style="stop-color:rgb(100%,43.921569%,26.27451%);stop-opacity:1;"/>
<stop offset="1" style="stop-color:rgb(100%,54.117647%,39.607843%);stop-opacity:1;"/>
</linearGradient>
<linearGradient id="linear4" gradientUnits="userSpaceOnUse" x1="275.166656" y1="233.5" x2="275.166656" y2="-168.666656" gradientTransform="matrix(1,0,0,1,126.999977,-0.00000153711)">
<stop offset="0" style="stop-color:rgb(100%,43.921569%,26.27451%);stop-opacity:1;"/>
<stop offset="1" style="stop-color:rgb(100%,54.117647%,39.607843%);stop-opacity:1;"/>
</linearGradient>
<linearGradient id="linear5" gradientUnits="userSpaceOnUse" x1="275.166656" y1="233.5" x2="275.166656" y2="-168.666656" gradientTransform="matrix(1,0,0,1,-10.58334,0)">
<stop offset="0" style="stop-color:rgb(100%,43.921569%,26.27451%);stop-opacity:1;"/>
<stop offset="1" style="stop-color:rgb(100%,54.117647%,39.607843%);stop-opacity:1;"/>
</linearGradient>
</defs>
<g id="surface1">
<path style=" stroke:none;fill-rule:nonzero;fill:url(#radial0);" d="M 201.101562 224.269531 L 222.269531 224.269531 L 222.269531 213.6875 L 201.101562 213.6875 Z M 201.101562 224.269531 "/>
<path style=" stroke:none;fill-rule:nonzero;fill:url(#radial1);" d="M 52.921875 224.269531 L 31.753906 224.269531 L 31.753906 234.855469 L 52.921875 234.855469 Z M 52.921875 224.269531 "/>
<path style=" stroke:none;fill-rule:nonzero;fill:url(#radial2);" d="M 52.921875 224.269531 L 31.753906 224.269531 L 31.753906 213.6875 L 52.921875 213.6875 Z M 52.921875 224.269531 "/>
<path style=" stroke:none;fill-rule:nonzero;fill:url(#radial3);" d="M 201.101562 224.269531 L 222.269531 224.269531 L 222.269531 234.855469 L 201.101562 234.855469 Z M 201.101562 224.269531 "/>
<path style=" stroke:none;fill-rule:nonzero;fill:url(#linear0);" d="M 52.921875 220.054688 L 201.101562 220.054688 L 201.101562 234.855469 L 52.921875 234.855469 Z M 52.921875 220.054688 "/>
<path style=" stroke:none;fill-rule:nonzero;fill:url(#linear1);" d="M 89.96875 23.167969 L 211.6875 23.167969 C 217.53125 23.167969 222.269531 27.90625 222.269531 33.753906 L 222.269531 213.6875 C 222.269531 219.53125 217.53125 224.269531 211.6875 224.269531 L 89.96875 224.269531 C 84.121094 224.269531 79.382812 219.53125 79.382812 213.6875 L 79.382812 33.753906 C 79.382812 27.90625 84.121094 23.167969 89.96875 23.167969 Z M 89.96875 23.167969 "/>
<path style=" stroke:none;fill-rule:nonzero;fill:rgb(13.333334%,13.333334%,13.333334%);fill-opacity:0.156863;" d="M 222.269531 129.011719 L 182.289062 142.941406 L 196.21875 182.921875 L 222.269531 173.84375 Z M 175.625 145.261719 L 135.644531 159.1875 L 149.574219 199.167969 L 189.554688 185.242188 Z M 222.269531 181.316406 L 198.539062 189.585938 L 210.621094 224.269531 L 211.6875 224.269531 C 217.550781 224.269531 222.269531 219.550781 222.269531 213.6875 Z M 191.875 191.90625 L 151.894531 205.832031 L 158.316406 224.269531 L 203.148438 224.269531 Z M 191.875 191.90625 "/>
<path style=" stroke:none;fill-rule:nonzero;fill:rgb(100%,100%,100%);fill-opacity:1;" d="M 89.96875 23.167969 C 84.101562 23.167969 79.382812 27.890625 79.382812 33.753906 L 79.382812 36.398438 C 79.382812 30.535156 84.101562 25.816406 89.96875 25.816406 L 211.6875 25.816406 C 217.550781 25.816406 222.269531 30.535156 222.269531 36.398438 L 222.269531 33.753906 C 222.269531 27.890625 217.550781 23.167969 211.6875 23.167969 Z M 89.96875 23.167969 "/>
<path style=" stroke:none;fill-rule:nonzero;fill:rgb(0%,0%,0%);fill-opacity:0.235294;" d="M 79.382812 211.039062 L 79.382812 213.6875 C 79.382812 219.550781 84.101562 224.269531 89.96875 224.269531 L 211.6875 224.269531 C 217.550781 224.269531 222.269531 219.550781 222.269531 213.6875 L 222.269531 211.039062 C 222.269531 216.90625 217.550781 221.625 211.6875 221.625 L 89.96875 221.625 C 84.101562 221.625 79.382812 216.90625 79.382812 211.039062 Z M 79.382812 211.039062 "/>
<path style=" stroke:none;fill-rule:nonzero;fill:rgb(12.941177%,12.941177%,12.941177%);fill-opacity:1;" d="M 89.964844 22.417969 C 83.699219 22.417969 78.632812 27.488281 78.632812 33.753906 L 78.632812 213.6875 C 78.632812 219.953125 83.699219 225.023438 89.964844 225.023438 L 211.6875 225.023438 C 217.953125 225.023438 223.019531 219.953125 223.019531 213.6875 L 223.019531 33.753906 C 223.019531 27.488281 217.953125 22.417969 211.6875 22.417969 Z M 89.964844 23.917969 L 211.6875 23.917969 C 217.148438 23.917969 221.519531 28.292969 221.519531 33.753906 L 221.519531 213.6875 C 221.519531 219.148438 217.148438 223.519531 211.6875 223.519531 L 89.964844 223.519531 C 84.503906 223.519531 80.132812 219.148438 80.132812 213.6875 L 80.132812 33.753906 C 80.132812 28.292969 84.503906 23.917969 89.964844 23.917969 Z M 89.964844 23.917969 "/>
<path style=" stroke:none;fill-rule:nonzero;fill:url(#linear2);" d="M 42.335938 23.167969 C 36.472656 23.167969 31.753906 27.890625 31.753906 33.753906 L 31.753906 213.6875 C 31.753906 219.550781 36.472656 224.273438 42.335938 224.273438 L 95.257812 224.273438 L 95.257812 23.167969 Z M 42.335938 23.167969 "/>
<path style=" stroke:none;fill-rule:nonzero;fill:rgb(100%,100%,100%);fill-opacity:0.392157;" d="M 42.335938 23.167969 C 36.472656 23.167969 31.753906 27.890625 31.753906 33.753906 L 31.753906 36.398438 C 31.753906 30.535156 36.472656 25.816406 42.335938 25.816406 L 92.613281 25.816406 L 92.613281 224.273438 L 95.257812 224.273438 L 95.257812 23.167969 Z M 42.335938 23.167969 "/>
<path style=" stroke:none;fill-rule:nonzero;fill:rgb(0%,0%,0%);fill-opacity:0.235294;" d="M 31.753906 211.039062 L 31.753906 213.6875 C 31.753906 219.550781 36.472656 224.273438 42.335938 224.273438 L 95.257812 224.273438 L 95.257812 221.625 L 42.335938 221.625 C 36.472656 221.625 31.753906 216.90625 31.753906 211.039062 Z M 31.753906 211.039062 "/>
<path style=" stroke:none;fill-rule:nonzero;fill:rgb(12.941177%,12.941177%,12.941177%);fill-opacity:1;" d="M 42.335938 22.417969 C 36.070312 22.417969 31.003906 27.488281 31.003906 33.753906 L 31.003906 213.6875 C 31.003906 219.953125 36.070312 225.023438 42.335938 225.023438 L 95.257812 225.023438 C 95.671875 225.019531 96.007812 224.6875 96.007812 224.269531 L 96.007812 23.167969 C 96.007812 22.753906 95.671875 22.417969 95.257812 22.417969 Z M 42.335938 23.917969 L 94.507812 23.917969 L 94.507812 223.519531 L 42.335938 223.519531 C 36.875 223.519531 32.503906 219.148438 32.503906 213.6875 L 32.503906 33.753906 C 32.503906 28.292969 36.875 23.917969 42.335938 23.917969 Z M 42.335938 23.917969 "/>
<path style="fill-rule:nonzero;fill:url(#linear3);stroke-width:3;stroke-linecap:round;stroke-linejoin:round;stroke:rgb(12.941177%,12.941177%,12.941177%);stroke-opacity:1;stroke-miterlimit:4;" d="M 317.50093 -83.996885 C 279.387382 -83.996885 248.710624 -53.320127 248.710624 -15.206579 C 248.710624 22.899157 279.387382 53.583727 317.50093 53.583727 C 353.825586 53.583727 383.385264 25.703576 386.072507 -9.918022 L 317.50093 -9.918022 Z M 317.50093 -83.996885 " transform="matrix(0.500048,0,0,0.500048,0,107.510266)"/>
<path style="fill-rule:nonzero;fill:url(#linear4);stroke-width:3;stroke-linecap:round;stroke-linejoin:round;stroke:rgb(12.941177%,12.941177%,12.941177%);stroke-opacity:1;stroke-miterlimit:4;" d="M 338.662972 -105.166739 L 338.662972 -31.080063 L 407.234549 -31.080063 C 407.367348 -32.829896 407.461089 -34.595353 407.461089 -36.376433 C 407.461089 -74.482169 376.77652 -105.166739 338.662972 -105.166739 Z M 338.662972 -105.166739 " transform="matrix(0.500048,0,0,0.500048,0,107.510266)"/>
<path style="fill-rule:nonzero;fill:url(#linear5);stroke-width:3;stroke-linecap:round;stroke-linejoin:round;stroke:rgb(12.941177%,12.941177%,12.941177%);stroke-opacity:1;stroke-miterlimit:4;" d="M 232.83714 85.330695 L 402.16472 85.330695 C 408.007912 85.330695 412.749647 90.07243 412.749647 95.915622 L 412.749647 106.500548 C 412.749647 112.34374 408.007912 117.085475 402.16472 117.085475 L 232.83714 117.085475 C 226.986136 117.085475 222.252213 112.34374 222.252213 106.500548 L 222.252213 95.915622 C 222.252213 90.07243 226.986136 85.330695 232.83714 85.330695 Z M 232.83714 85.330695 " transform="matrix(0.500048,0,0,0.500048,0,107.510266)"/>
</g>
</svg>

<svg xmlns="http://www.w3.org/2000/svg" width="256pt" height="256pt" viewBox="0 0 256 256"><defs><radialGradient id="a" gradientUnits="userSpaceOnUse" cx="450.909" cy="189.579" fx="450.909" fy="189.579" r="21.167" gradientTransform="matrix(0 -.62506 -1.1251 0 411.753 508.763)"><stop offset="0" stop-opacity=".314"/><stop offset=".222" stop-opacity=".275"/><stop offset="1" stop-opacity="0"/></radialGradient><radialGradient id="b" gradientUnits="userSpaceOnUse" cx="450.909" cy="189.579" fx="450.909" fy="189.579" r="21.167" gradientTransform="matrix(0 .62506 1.1251 0 -157.729 -60.22)"><stop offset="0" stop-opacity=".314"/><stop offset=".222" stop-opacity=".275"/><stop offset="1" stop-opacity="0"/></radialGradient><radialGradient id="c" gradientUnits="userSpaceOnUse" cx="450.909" cy="189.579" fx="450.909" fy="189.579" r="21.167" gradientTransform="matrix(0 -.62506 1.1251 0 -157.729 508.763)"><stop offset="0" stop-opacity=".314"/><stop offset=".222" stop-opacity=".275"/><stop offset="1" stop-opacity="0"/></radialGradient><radialGradient id="d" gradientUnits="userSpaceOnUse" cx="450.909" cy="189.579" fx="450.909" fy="189.579" r="21.167" gradientTransform="matrix(0 .62506 -1.1251 0 411.753 -60.22)"><stop offset="0" stop-opacity=".314"/><stop offset=".222" stop-opacity=".275"/><stop offset="1" stop-opacity="0"/></radialGradient><linearGradient id="e" gradientUnits="userSpaceOnUse" x1="255.323" y1="228.179" x2="255.323" y2="254.667" gradientTransform="matrix(2.1376 0 0 .39959 -397.6 133.094)"><stop offset="0" stop-opacity=".275"/><stop offset="1" stop-opacity="0"/></linearGradient><linearGradient id="f" gradientUnits="userSpaceOnUse" x1="328.083" y1="233.5" x2="328.083" y2="-168.667" gradientTransform="matrix(.50005 0 0 .50005 0 107.51)"><stop offset="0" stop-color="#e0e0e0"/><stop offset="1" stop-color="#eee"/></linearGradient><linearGradient id="g" gradientUnits="userSpaceOnUse" x1="127" y1="233.5" x2="127" y2="-168.667" gradientTransform="matrix(.50005 0 0 .50005 0 107.51)"><stop offset="0" stop-color="#ff7043"/><stop offset="1" stop-color="#ff8a65"/></linearGradient><linearGradient id="h" gradientUnits="userSpaceOnUse" x1="275.167" y1="233.5" x2="275.167" y2="-168.667" gradientTransform="translate(127)"><stop offset="0" stop-color="#ff7043"/><stop offset="1" stop-color="#ff8a65"/></linearGradient><linearGradient id="i" gradientUnits="userSpaceOnUse" x1="275.167" y1="233.5" x2="275.167" y2="-168.667" gradientTransform="translate(127)"><stop offset="0" stop-color="#ff7043"/><stop offset="1" stop-color="#ff8a65"/></linearGradient><linearGradient id="j" gradientUnits="userSpaceOnUse" x1="275.167" y1="233.5" x2="275.167" y2="-168.667" gradientTransform="translate(-10.583)"><stop offset="0" stop-color="#ff7043"/><stop offset="1" stop-color="#ff8a65"/></linearGradient></defs><path d="M201.102 224.27h21.168v-10.583h-21.168zm0 0" fill="url(#a)"/><path d="M52.922 224.27H31.754v10.585h21.168zm0 0" fill="url(#b)"/><path d="M52.922 224.27H31.754v-10.583h21.168zm0 0" fill="url(#c)"/><path d="M201.102 224.27h21.168v10.585h-21.168zm0 0" fill="url(#d)"/><path d="M52.922 220.055h148.18v14.8H52.922zm0 0" fill="url(#e)"/><path d="M89.969 23.168h121.719c5.843 0 10.582 4.738 10.582 10.586v179.934c0 5.843-4.739 10.582-10.583 10.582H89.97c-5.848 0-10.586-4.739-10.586-10.583V33.755c0-5.848 4.738-10.586 10.586-10.586zm0 0" fill="url(#f)"/><path d="M222.27 129.012l-39.98 13.93 13.929 39.98 26.05-9.078zm-46.645 16.25l-39.98 13.925 13.93 39.981 39.98-13.926zm46.645 36.054l-23.73 8.27 12.081 34.684h1.066a10.558 10.558 0 0 0 10.583-10.583zm-30.395 10.59l-39.98 13.926 6.421 18.438h44.832zm0 0" fill="#222" fill-opacity=".157"/><path d="M89.969 23.168a10.562 10.562 0 0 0-10.586 10.586v2.644a10.559 10.559 0 0 1 10.586-10.582h121.719a10.558 10.558 0 0 1 10.582 10.582v-2.644a10.561 10.561 0 0 0-10.583-10.586zm0 0" fill="#fff"/><path d="M79.383 211.04v2.648a10.559 10.559 0 0 0 10.586 10.582h121.719a10.558 10.558 0 0 0 10.582-10.583v-2.648a10.559 10.559 0 0 1-10.583 10.586H89.97a10.56 10.56 0 0 1-10.586-10.586zm0 0" fill-opacity=".235"/><path d="M89.965 22.418c-6.266 0-11.332 5.07-11.332 11.336v179.934c0 6.265 5.066 11.335 11.332 11.335h121.722c6.266 0 11.333-5.07 11.333-11.335V33.754c0-6.266-5.067-11.336-11.333-11.336zm0 1.5h121.722a9.796 9.796 0 0 1 9.833 9.836v179.934a9.793 9.793 0 0 1-9.833 9.832H89.966a9.793 9.793 0 0 1-9.832-9.833V33.755a9.796 9.796 0 0 1 9.832-9.836zm0 0" fill="#212121"/><path d="M42.336 23.168a10.561 10.561 0 0 0-10.582 10.586v179.934a10.561 10.561 0 0 0 10.582 10.585h52.922V23.168zm0 0" fill="url(#g)"/><path d="M42.336 23.168a10.561 10.561 0 0 0-10.582 10.586v2.644a10.558 10.558 0 0 1 10.582-10.582h50.277v198.457h2.645V23.168zm0 0" fill="#fff" fill-opacity=".392"/><path d="M31.754 211.04v2.648a10.561 10.561 0 0 0 10.582 10.585h52.922v-2.648H42.336a10.559 10.559 0 0 1-10.582-10.586zm0 0" fill-opacity=".235"/><path d="M42.336 22.418c-6.266 0-11.332 5.07-11.332 11.336v179.934c0 6.265 5.066 11.335 11.332 11.335h52.922a.754.754 0 0 0 .75-.753V23.168a.75.75 0 0 0-.75-.75zm0 1.5h52.172V223.52H42.336a9.793 9.793 0 0 1-9.832-9.833V33.755a9.796 9.796 0 0 1 9.832-9.836zm0 0" fill="#212121"/><path d="M317.5-83.997c-38.113 0-68.79 30.677-68.79 68.79 0 38.106 30.677 68.79 68.79 68.79 36.326 0 65.885-27.88 68.573-63.501H317.5zm0 0" transform="matrix(.50005 0 0 .50005 0 107.51)" fill="url(#h)" stroke-width="3" stroke-linecap="round" stroke-linejoin="round" stroke="#212121"/><path d="M338.663-105.167v74.087h68.572c.132-1.75.226-3.515.226-5.296 0-38.106-30.684-68.79-68.798-68.79zm0 0" transform="matrix(.50005 0 0 .50005 0 107.51)" fill="url(#i)" stroke-width="3" stroke-linecap="round" stroke-linejoin="round" stroke="#212121"/><path d="M232.837 85.33h169.328c5.843 0 10.585 4.742 10.585 10.586V106.5c0 5.843-4.742 10.584-10.585 10.584H232.837c-5.85 0-10.585-4.741-10.585-10.584V95.916c0-5.844 4.734-10.585 10.585-10.585zm0 0" transform="matrix(.50005 0 0 .50005 0 107.51)" fill="url(#j)" stroke-width="3" stroke-linecap="round" stroke-linejoin="round" stroke="#212121"/></svg>
